!!!OTL: ES GIENG EIN KNAB SPAZIEREN
!!!ARE: Europa, Mitteleuropa, Deutschland, Schlesien
!!!SCT: E0197C
!!!YEM: Copyright 1995, estate of Helmut Schaffrath.
**kern
*ICvox
*Ivox
!! Mixed meters:  2/4; 3/4
*M2/4
*k[]
*C:
{8e
=1
8g
8e
8g
8e
=2
8g
8cc
4a}
=3
{4g
=4
8g
8e
16g
16f
8d
=5
4e
8r}
{8e
=6
8g
8e
8g
8e
=7
8g
8cc
4a}
=8
{4g
=9
8g
8e
16g
16f
8d
=10
4e
8r}
==
!!!AGN: erzaehlendes Volks - Lied, Tod, Toten - Sage, Grabesstimme
!!!ONB: ESAC (Essen Associative Code) Database: ERK1
!!!AMT: irregular
!!!AIN: vox
!!!EED: Helmut Schaffrath
!!!EEV: 1.0
*-
